X:73
T: Yintao hao chi shu nan zai
N: C0095
O: China,Shanxi, Zuoquan
S: I, 331, 1)]
N: etwas ueber gut schmeckende Kirschen und den schwierigen Baum.
N: Vereinzelt Verzierungen.
R: Xiaodiao. Biaoda aiqing]
M: 2/4
L: 1/8
K: A
Bcef | e2c2 | BceB | A4 |
ccec | B2c2 | FEC2 | EFGF | E4

@@@ Tune index: 6074
